X:1
T:Sing to the great Jehovah’s praise
T:Sing to the great Jehovah’s praise - New Year Song (Thomas Jarman)
C:Thomas Jarman
Z:p50, The Wesleyan Melodist,
Z:London: [c1840]
%%score [ 1 2 3 4 ]
L:1/8
M:2/4
K:E
V:1 treble nm="Soprano" snm="S."
V:2 treble nm="Alto" snm="A."
V:3 treble-8 transpose=-12 nm="Tenor" snm="T."
V:4 bass nm="Bass" snm="B."
V:1
 e2 d>c | (BA G)c | B2 A2 | !fermata!G2 c2 | B2 e2 | (dc) (B^A) | !fermata!B3 B | (ed c)B | c3 c | %9
w: Fa- ther, thy|mer- * * cies|past we|own, Thy|still- con-|ti- * nued _|care; To|thee _ _ pre-|sent- ing,|
w: Sing to the|great _ _ Je-|ho- vah’s|praise, All|praise to|him _ be- *|longs: Who|kind- * * ly|leng- thens|
w: His pro- vi-|dence _ _ has|brought us|through A-|no- ther|va- * rious _|year: We|all _ _ with|vows and|
 (fe d)c | d2 z!p! B | e2 (GB) | (cB) (Be) | e2 (GB) | (c2 B)!f!d | e2 (e/f/g) | (fe) (de) | %17
w: through _ _ thy|Son, To|thee pre- *|sent- * ing, _|through thy _|Son, _ To|thee pre- * *|sent- * ing, _|
w: out _ _ our|days, Who|kind- ly _|leng- * thens _|out our _|days, _ Who|kind- ly _ _|leng- * thens _|
w: an- * * thems|new, We|all with _|vows _ and _|an- thems _|new, _ We|all with _ _|vows _ and _|
 d2 c2 | B2 z A | (Gc) (Be) | e2 d2 | e4 |] %22
w: through thy|Son, What-|e’er _ we _|have or|are.|
w: out our|days, De-|mands _ our _|choi- cest|songs.|
w: an- thems|new Be-|fore _ our _|God ap-|pear.|
V:2
 G2 F>F | (GF E)A | G2 F2 | !fermata!E2 F2 | F2 (EG) | (FE) (DC) | !fermata!D3 E | E3 E | %8
w: Fa- ther, thy|mer- * * cies|past we|own, Thy|still- con- *|ti- * nued _|care; To|thee pre-|
w: Sing to the|great _ _ Je-|ho- vah’s|praise, All|praise to _|him _ be- *|longs: Who|kind- ly|
w: His pro- vi-|dence _ _ has|brought us|through A-|no- ther _|va- * rious _|year: We|all with|
 (E2 F)^A | (BG F)F | F2 z"^["!p!"^]" F | G2 (EG) | (AG) G2 | G2 (EG) | (A2 G)"^["!f!"^]"F | %15
w: sent- * ing,|through _ _ thy|Son, To|thee pre- *|sent- * ing,|through thy _|Son, _ To|
w: leng- * thens|out _ _ our|days, Who|kind- ly _|leng- * thens|out our _|days, _ Who|
w: vows _ and|an- * * thems|new, We|all with _|vows _ and|an- thems _|new, _ We|
 E2 B2 | F2 (FG) | F2 E2 | D2 z F | (EG) (EG) | F2 F2 | G4 |] %22
w: thee pre-|sent- ing, _|through thy|Son, What-|e’er _ we _|have or|are.|
w: kind- ly|leng- thens _|out our|days, De-|mands _ our _|choi- cest|songs.|
w: all with|vows and _|an- thems|new Be-|fore _ our _|God ap-|pear.|
V:3
 B2 B>A | (Gd e)e | e2 (d>B) | !fermata!B2 ^A2 | B2 B2 | (B^A) (Bc) | !fermata!B3 G | (cB A)G | %8
w: Fa- ther, thy|mer- * * cies|past we _|own, Thy|still- con-|ti- * nued _|care; To|thee _ _ pre-|
w: Sing to the|great _ _ Je-|ho- vah’s _|praise, All|praise to|him _ be- *|longs: Who|kind- * * ly|
w: His pro- vi-|dence _ _ has|brought us _|through A-|no- ther|va- * rious _|year: We|all _ _ with|
 A3 c | B3 ^A | B2 z"^["!p!"^]" d | B2 (Be) | e2 (eB) | B2 (Be) | e3"^["!f!"^]" B | B2 (G/A/B) | %16
w: sent- ing,|through thy|Son, To|thee pre- *|sent- ing, _|through thy _|Son, To|thee pre- * *|
w: leng- thens|out our|days, Who|kind- ly _|leng- thens _|out our _|days, Who|kind- ly _ _|
w: vows and|an- thems|new, We|all with _|vows and _|an- thems _|new, We|all with _ _|
 (dc) B2 | B2 ^A2 | B2 z B | (Be) (eB) | B2 B2 | B4 |] %22
w: sent- * ing,|through thy|Son, What-|e’er _ we _|have or|are.|
w: leng- * thens|out our|days, De-|mands _ our _|choi- cest|songs.|
w: vows _ and|an- thems|new Be-|fore _ our _|God ap-|pear.|
V:4
 E,2 B,,>D, | (E,B,, C,)A,, | B,,2 B,,2 | !fermata!E,2 E,2 | D,2 (G,E,) | F,2 F,2 | %6
w: Fa- ther, thy|mer- * * cies|past we|own, Thy|still- con- *|ti- nued|
w: Sing to the|great _ _ Je-|ho- vah’s|praise, All|praise to _|him be-|
w: His pro- vi-|dence _ _ has|brought us|through A-|no- ther _|va- rious|
 !fermata!B,,3 z | z2 z E, | (A,G, F,)E, | (D,E, F,)F, | (B,A, G,)"^["!p!"^]"F, | E,4- | E,4- | %13
w: care;|To|thee _ _ pre-|sent- * * ing,|through _ _ thy|Son,|_|
w: longs:|Who|kind- * * ly|leng- * * thens|out _ _ our|days,|_|
w: year:|We|all _ _ with|vows _ _ and|an- * * thems|new,|_|
 E,4- | %14
w: |
w: |
w: |
"^The source gives the parts in the order Tenor - Alto - Treble - Bass (labelled as such in the first piece in the book).The treble and bass parts are bracketed together, with small notes between them to fill in the harmony of a keyboardpart doubling the voices. This accompaniment has been omitted from the present edition. Only the first verse of thetext is given in the source: subsequent verses have been underlaid editorially." E,3"^["!f!"^]" B, | %15
w: * To|
w: * Who|
w: * We|
 G,2"^Our residue of days or hoursThine, wholly thine, shall be;And all our consecrated pow’rsA sacrifice to thee:Till Jesus in the clouds appearTo saints on earth forgiv’n,And bring the grand sabbatic year,The Jubilee of heav’n." E,2 | %16
w: thee pre-|
w: kind- ly|
w: all with|
 (B,^A,) (B,E,) | F,2 F,2 | B,,2 z B,, | E,2 G,2 | B,2 B,,2 | E,4 |] %22
w: sent- * ing, _|through thy|Son, What-|e’er we|have or|are.|
w: leng- * thens _|out our|days, De-|mands our|choi- cest|songs.|
w: vows _ and _|an- thems|new Be-|fore our|God ap-|pear.|

